stroom-app/src/main/resources/ui/images/pipeline/split.svg

<svg width="1792" height="1792" viewBox="0 0 1792 1792" xmlns="http://www.w3.org/2000/svg"><path style="fill:var(--icon-colour__blue)" d="m 1440,96.289062 c -9.3333,0 -17,3.000004 -23,8.999998 -6,6 -9,13.66667 -9,23 v 192 h -256 c -45.3333,0 -88,5.5 -128,16.5 -40,11 -75.5,25 -106.5,42 -31,17 -61,39.83333 -90,68.5 -29,28.66667 -53.66667,56.33333 -74,83 -8.86076,11.62068 -17.91178,24.50943 -27.15234,38.66211 -0.30342,-0.21044 -0.58959,-0.399 -0.89454,-0.61133 -2.01732,3.86655 -4.01837,7.65431 -6.0039,11.36719 -9.77563,15.4777 -19.75705,32.3274 -29.94922,50.58203 -2.11038,3.77979 -4.14474,7.47162 -6.17773,11.16211 -0.95714,1.46627 -1.92118,2.96672 -2.86915,4.38867 -14,21 -31,41.5 -51,61.5 -20,20 -43,35 -69,45 -17.14673,6.5949 -35.60697,11.00047 -55.36328,13.2461 -10.39894,-0.61233 -31.63672,-0.92969 -31.63672,-0.92969 l -228.84906,2.68359 -212.60406,0 c -9.333333,0 -17,3 -23,9 -6,6 -9,13.66667 -9,23 v 192 c 0,9.33336 3,16.99996 9,22.99996 6,6 13.666667,9 23,9 h 224 217.45312 c 10.69584,0 21.23778,-0.3173 31.63672,-0.9296 19.75631,2.2456 38.21655,6.6512 55.36328,13.246 26,10 49,25 69,45 17.743,17.743 33.11984,35.8802 46.14063,54.4102 4.44404,8.2203 9.05293,16.6317 13.90625,25.3242 22.33333,40 43.66667,73.3333 64,100 20.33333,26.6667 45,54.3333 74,83 29,28.6667 59,51.5 90,68.5 31,17 66.5,31 106.5,42 40,11 82.6667,16.5 128,16.5 h 256 v 192 c 0,9.3333 3,17 9,23 6,6 13.6667,9 23,9 8,0 16,-3.3333 24,-10 l 319,-319 c 6,-6 9,-13.6667 9,-23 0,-9.3333 -3,-17 -9,-23 L 1463,999.39062 c -6,-6 -13.6667,-9 -23,-9 -8.6667,0 -16.1667,3.16668 -22.5,9.5 -6.3333,6.33328 -9.5,13.83328 -9.5,22.49998 v 192 h -256 c -32,0 -61,-5 -87,-15 -26,-10 -49,-25 -69,-45 -20,-20 -37,-40.5 -51,-61.5 -1.53061,-2.2959 -3.07829,-4.6744 -4.63281,-7.0859 -1.40636,-3.6714 -2.87267,-7.3847 -4.41407,-11.1485 -22.33333,-40 -43.66666,-73.3332 -64,-99.99995 -19.77849,-25.93902 -43.66979,-52.82684 -71.64843,-80.6582 27.97864,-27.83136 51.86994,-54.71919 71.64843,-80.65821 8.59791,-11.27594 17.37653,-23.75802 26.33204,-37.41796 0.59631,-0.21895 1.1162,-0.41315 1.71484,-0.63282 2.01733,-3.86655 4.01837,-7.65431 6.00391,-11.36718 9.77563,-15.4777 19.75705,-32.32741 29.94921,-50.58204 -0.19533,-0.20339 -0.37752,-0.38545 -0.57226,-0.58789 3.25495,-5.22066 6.46567,-10.23268 9.61914,-14.96289 14,-21 31,-41.5 51,-61.5 20,-20 43,-35 69,-45 26,-10 55,-15 87,-15 h 256 v 192 c 0,8.66667 3.1667,16.16667 9.5,22.5 6.3333,6.33333 13.8333,9.5 22.5,9.5 9.3333,0 17,-3 23,-9 l 320,-320 c 6,-6 9,-13.66667 9,-23 0,-9.33333 -3,-17 -9,-23 l -319,-319 c -8,-6.66666 -16,-9.999998 -24,-9.999998 z"/></svg>

<svg xmlns="http://www.w3.org/2000/svg" width="1792" height="1792" viewBox="0 0 1792 1792"><path style="fill:var(--icon-colour__blue)" d="M 1440 96.289062 C 1430.6667 96.289062 1423 99.289066 1417 105.28906 C 1411 111.28906 1408 118.95573 1408 128.28906 L 1408 320.28906 L 1152 320.28906 C 1106.6667 320.28906 1064 325.78906 1024 336.78906 C 984 347.78906 948.5 361.78906 917.5 378.78906 C 886.5 395.78906 856.5 418.62239 827.5 447.28906 C 798.5 475.95573 773.83333 503.62239 753.5 530.28906 C 744.63924 541.90974 735.58822 554.79849 726.34766 568.95117 C 726.04424 568.74073 725.75807 568.55217 725.45312 568.33984 C 723.4358 572.20639 721.43475 575.99415 719.44922 579.70703 C 709.67359 595.18473 699.69217 612.03443 689.5 630.28906 C 687.38962 634.06885 685.35526 637.76068 683.32227 641.45117 C 682.36513 642.91744 681.40109 644.41789 680.45312 645.83984 C 666.45312 666.83984 649.45312 687.33984 629.45312 707.33984 C 609.45312 727.33984 586.45312 742.33984 560.45312 752.33984 C 543.30639 758.93474 524.84615 763.34031 505.08984 765.58594 C 494.6909 764.97361 484.14896 764.65625 473.45312 764.65625 L 249.45312 764.65625 C 244.36306 764.65625 239.77249 765.55531 235.67383 767.33984 L 32 767.33984 C 22.666667 767.33984 15 770.33984 9 776.33984 C 3 782.33984 0 790.00651 0 799.33984 L 0 991.33984 C 0 1000.6732 3 1008.3398 9 1014.3398 C 15 1020.3398 22.666667 1023.3398 32 1023.3398 L 256 1023.3398 L 473.45312 1023.3398 C 484.14896 1023.3398 494.6909 1023.0225 505.08984 1022.4102 C 524.84615 1024.6558 543.30639 1029.0614 560.45312 1035.6562 C 586.45312 1045.6562 609.45312 1060.6562 629.45312 1080.6562 C 647.19612 1098.3992 662.57296 1116.5364 675.59375 1135.0664 C 680.03779 1143.2867 684.64668 1151.6981 689.5 1160.3906 C 711.83333 1200.3906 733.16667 1233.7239 753.5 1260.3906 C 773.83333 1287.0573 798.5 1314.7239 827.5 1343.3906 C 856.5 1372.0573 886.5 1394.8906 917.5 1411.8906 C 948.5 1428.8906 984 1442.8906 1024 1453.8906 C 1064 1464.8906 1106.6667 1470.3906 1152 1470.3906 L 1408 1470.3906 L 1408 1662.3906 C 1408 1671.7239 1411 1679.3906 1417 1685.3906 C 1423 1691.3906 1430.6667 1694.3906 1440 1694.3906 C 1448 1694.3906 1456 1691.0573 1464 1684.3906 L 1783 1365.3906 C 1789 1359.3906 1792 1351.7239 1792 1342.3906 C 1792 1333.0573 1789 1325.3906 1783 1319.3906 L 1463 999.39062 C 1457 993.39062 1449.3333 990.39062 1440 990.39062 C 1431.3333 990.39062 1423.8333 993.5573 1417.5 999.89062 C 1411.1667 1006.2239 1408 1013.7239 1408 1022.3906 L 1408 1214.3906 L 1152 1214.3906 C 1120 1214.3906 1091 1209.3906 1065 1199.3906 C 1039 1189.3906 1016 1174.3906 996 1154.3906 C 976 1134.3906 959 1113.8906 945 1092.8906 C 943.46939 1090.5947 941.92171 1088.2162 940.36719 1085.8047 C 938.96083 1082.1333 937.49452 1078.42 935.95312 1074.6562 C 913.61979 1034.6562 892.28646 1001.323 871.95312 974.65625 C 852.17463 948.71723 828.28333 921.82941 800.30469 893.99805 C 828.28333 866.16669 852.17463 839.27886 871.95312 813.33984 C 880.55103 802.0639 889.32965 789.58182 898.28516 775.92188 C 898.88147 775.70293 899.40136 775.50873 900 775.28906 C 902.01733 771.42251 904.01837 767.63475 906.00391 763.92188 C 915.77954 748.44418 925.76096 731.59447 935.95312 713.33984 C 935.75779 713.13645 935.5756 712.95439 935.38086 712.75195 C 938.63581 707.53129 941.84653 702.51927 945 697.78906 C 959 676.78906 976 656.28906 996 636.28906 C 1016 616.28906 1039 601.28906 1065 591.28906 C 1091 581.28906 1120 576.28906 1152 576.28906 L 1408 576.28906 L 1408 768.28906 C 1408 776.95573 1411.1667 784.45573 1417.5 790.78906 C 1423.8333 797.12239 1431.3333 800.28906 1440 800.28906 C 1449.3333 800.28906 1457 797.28906 1463 791.28906 L 1783 471.28906 C 1789 465.28906 1792 457.62239 1792 448.28906 C 1792 438.95573 1789 431.28906 1783 425.28906 L 1464 106.28906 C 1456 99.6224 1448 96.289062 1440 96.289062 z "/></svg>
